X: 17750
T: Hommage à Edmond Parizeau
R: reel
M: 4/4
K: Amajor
|:ABcd|e2 ce Aece|ABAc efed|c2 Bc EAcB|AEAc edcd|B2GB EBGB|
[1 BGBd efed|c2 Ac GAFG|E4:|2 BGBd edcB|A3 A GABG|A2 c2 B2 A2||
|:{ef}a4 f4|f4 {Bc}d2 f2|e4 efec|A2 c2 B2 A2|B4 BGBd|
e2 d2 c2 B2|1 cBAc efec|e2 c2 B2 A2:|2 Afed ceBc|A2||

